svg/icon/fuel.svg

<svg height="32" viewBox="0 0 32 32" width="32" xmlns="http://www.w3.org/2000/svg" xmlns:xlink="http://www.w3.org/1999/xlink"><defs><linearGradient id="a" x1="50%" x2="50%" y1="0%" y2="100%"><stop offset="0" stop-color="#fff" stop-opacity=".5"/><stop offset="1" stop-opacity=".5"/></linearGradient><circle id="b" cx="16" cy="15" r="15"/><filter id="c" height="111.7%" width="111.7%" x="-5.8%" y="-4.2%"><feOffset dy=".5" in="SourceAlpha" result="shadowOffsetOuter1"/><feGaussianBlur in="shadowOffsetOuter1" result="shadowBlurOuter1" stdDeviation=".5"/><feComposite in="shadowBlurOuter1" in2="SourceAlpha" operator="out" result="shadowBlurOuter1"/><feColorMatrix in="shadowBlurOuter1" values="0 0 0 0 0   0 0 0 0 0   0 0 0 0 0  0 0 0 0.199473505 0"/></filter><path id="d" d="m25.5324213 9h-6.4954856l-1.925855 4.8294595h-6.0738714v-2.4864865h6.0738714l.8889193-2.342973h-9.19753762c-.23859306 0-.43201094.19106551-.43201094.42675676v4.40270274h-1.48153215l-.88891929 2.3416216h2.37045144v4.3964865c0 .2388258.19599026.4324324.43775649.4324324h4.45116277l.8886457-2.3413514h-3.1110807v-2.4875675h5.0372093l-1.9261286 4.8289189h2.9630643l2.074145-4.8291892h6.3794802c.2402995.0000001.4351431-.1923528.4352941-.4297297v-6.27918921c0-.25509585-.2093421-.46189189-.4675787-.46189189zm-2.0495212 4.4594595c0 .2046438-.1679391.3705405-.3751026.3705405h-3.0336525l1.0369357-2.4864865h1.9953488c.2069069-.0008978.3754154.1639887.3764706.3683784z"/><filter id="e" height="129.2%" width="117.5%" x="-8.8%" y="-10.4%"><feOffset dy=".5" in="SourceAlpha" result="shadowOffsetOuter1"/><feGaussianBlur in="shadowOffsetOuter1" result="shadowBlurOuter1" stdDeviation=".5"/><feColorMatrix in="shadowBlurOuter1" values="0 0 0 0 0   0 0 0 0 0   0 0 0 0 0  0 0 0 0.204257246 0"/></filter></defs><g fill="none" fill-rule="nonzero"><g><use fill="#000" filter="url(#c)" xlink:href="#b"/><use fill="#4096d0" fill-rule="evenodd" xlink:href="#b"/><use fill="url(#a)" fill-rule="evenodd" xlink:href="#b"/><circle cx="16" cy="15" r="14.5" stroke="#000" stroke-opacity=".097"/></g><g><use fill="#000" filter="url(#e)" xlink:href="#d"/><use fill="#fff" fill-rule="evenodd" xlink:href="#d"/></g></g></svg>

<svg xmlns="http://www.w3.org/2000/svg" xmlns:xlink="http://www.w3.org/1999/xlink" width="32" height="32" viewBox="0 0 32 32">
  <defs>
    <linearGradient id="fuel-c" x1="50%" x2="50%" y1="0%" y2="100%">
      <stop offset="0%" stop-color="#FFF" stop-opacity=".5"/>
      <stop offset="100%" stop-opacity=".5"/>
    </linearGradient>
    <circle id="fuel-b" cx="16" cy="15" r="15"/>
    <filter id="fuel-a" width="111.7%" height="111.7%" x="-5.8%" y="-4.2%" filterUnits="objectBoundingBox">
      <feOffset dy=".5" in="SourceAlpha" result="shadowOffsetOuter1"/>
      <feGaussianBlur in="shadowOffsetOuter1" result="shadowBlurOuter1" stdDeviation=".5"/>
      <feComposite in="shadowBlurOuter1" in2="SourceAlpha" operator="out" result="shadowBlurOuter1"/>
      <feColorMatrix in="shadowBlurOuter1" values="0 0 0 0 0   0 0 0 0 0   0 0 0 0 0  0 0 0 0.199473505 0"/>
    </filter>
    <path id="fuel-e" d="M25.5324213,9 L19.0369357,9 L17.1110807,13.8294595 L11.0372093,13.8294595 L11.0372093,11.342973 L17.1110807,11.342973 L18,9 L8.80246238,9 C8.56386932,9 8.37045144,9.19106551 8.37045144,9.42675676 L8.37045144,13.8294595 L6.88891929,13.8294595 L6,16.1710811 L8.37045144,16.1710811 L8.37045144,20.5675676 C8.37045144,20.8063934 8.5664417,21 8.80820793,21 L13.2593707,21 L14.1480164,18.6586486 L11.0369357,18.6586486 L11.0369357,16.1710811 L16.074145,16.1710811 L14.1480164,21 L17.1110807,21 L19.1852257,16.1708108 L25.5647059,16.1708108 C25.8050054,16.1708109 25.999849,15.978458 26,15.7410811 L26,9.46189189 C26,9.20679604 25.7906579,9 25.5324213,9 Z M23.4829001,13.4594595 C23.4829001,13.6641033 23.314961,13.83 23.1077975,13.83 L20.074145,13.83 L21.1110807,11.3435135 L23.1064295,11.3435135 C23.3133364,11.3426157 23.4818449,11.5075022 23.4829001,11.7118919 L23.4829001,13.4594595 Z"/>
    <filter id="fuel-d" width="117.5%" height="129.2%" x="-8.8%" y="-10.4%" filterUnits="objectBoundingBox">
      <feOffset dy=".5" in="SourceAlpha" result="shadowOffsetOuter1"/>
      <feGaussianBlur in="shadowOffsetOuter1" result="shadowBlurOuter1" stdDeviation=".5"/>
      <feColorMatrix in="shadowBlurOuter1" values="0 0 0 0 0   0 0 0 0 0   0 0 0 0 0  0 0 0 0.204257246 0"/>
    </filter>
  </defs>
  <g fill="none" fill-rule="evenodd">
    <g fill-rule="nonzero">
      <use fill="#000" filter="url(#fuel-a)" xlink:href="#fuel-b"/>
      <use fill="#4096D0" fill-rule="evenodd" xlink:href="#fuel-b"/>
      <use fill="url(#fuel-c)" fill-rule="evenodd" style="mix-blend-mode:soft-light" xlink:href="#fuel-b"/>
      <circle cx="16" cy="15" r="14.5" stroke="#000" stroke-opacity=".097"/>
    </g>
    <g fill-rule="nonzero">
      <use fill="#000" filter="url(#fuel-d)" xlink:href="#fuel-e"/>
      <use fill="#FFF" fill-rule="evenodd" xlink:href="#fuel-e"/>
    </g>
  </g>
</svg>
